src/assets/img/svg/itkool.svg

<?xml version="1.0" encoding="UTF-8" standalone="no"?>
<svg
   width="33.610088"
   height="31.680031"
   viewBox="0 0 33.610088 31.680031"
   fill="none"
   version="1.1"
   id="svg623"
   sodipodi:docname="itkool.svg"
   inkscape:version="1.2.2 (b0a8486541, 2022-12-01)"
   xmlns:inkscape="http://www.inkscape.org/namespaces/inkscape"
   xmlns:sodipodi="http://sodipodi.sourceforge.net/DTD/sodipodi-0.dtd"
   xmlns="http://www.w3.org/2000/svg"
   xmlns:svg="http://www.w3.org/2000/svg">
  <defs
     id="defs627" />
  <sodipodi:namedview
     id="namedview625"
     pagecolor="#ffffff"
     bordercolor="#000000"
     borderopacity="0.25"
     inkscape:showpageshadow="2"
     inkscape:pageopacity="0.0"
     inkscape:pagecheckerboard="0"
     inkscape:deskcolor="#d1d1d1"
     showgrid="false"
     inkscape:zoom="17.458333"
     inkscape:cx="8.24821"
     inkscape:cy="15.866348"
     inkscape:window-width="1920"
     inkscape:window-height="1008"
     inkscape:window-x="0"
     inkscape:window-y="0"
     inkscape:window-maximized="1"
     inkscape:current-layer="svg623" />
  <g
     id="g641"
     transform="translate(-7.19,-9.15997)">
    <path
       d="m 7.19,33.8 c 0,-7.68 0,-15.36 0,-23.04 0.39,-1.21003 1.25,-1.60003 2.48,-1.60003 9.65,0.03 19.3,0.02 28.94,0 1.35,0 2.2,0.99003 2.19,2.18003 -0.02,7.3 -0.01,14.59 -0.01,21.89 0,1.4 -0.8,2.2 -2.2,2.2 -2.77,0 -5.53,0 -8.3,0 h -0.37 v 3.44 c 0.8,0 1.57,0 2.35,0 0.61,0 1.05,0.43 1.05,0.99 0,0.56 -0.43,0.97 -1.05,0.98 -5.51,0 -11.03,0 -16.54,0 -0.62,0 -1.05,-0.41 -1.05,-0.98 0,-0.56 0.44,-0.98 1.05,-0.99 0.67,0 1.33,0 2,0 0.11,0 0.23,0 0.34,0 v -3.44 c -0.15,0 -0.28,0 -0.41,0 -2.78,0 -5.56,0 -8.34,0 -1.09,0 -1.77,-0.51 -2.08,-1.55 0,-0.03 -0.03,-0.05 -0.05,-0.08 z M 38.82,11.17 H 9.18 V 29.5 h 29.64 z m 0,20.35 H 9.18 v 1.92 h 29.64 z m -18.75,4.12 v 3.18 h 7.84 v -3.18 z"
       fill="currentColor"
       id="path599" />
    <path
       d="m 24.12,17.05 c 1.81,0 3.63,0 5.44,0 0.57,0 0.99,0.42 0.99,0.96 0,0.52 -0.39,0.95 -0.94,1 -0.1,0 -0.2,0 -0.29,0 -2.12,0 -4.24,0 -6.36,0 -1.4,0 -2.8,0 -4.2,0 -0.85,0 -1.35,-0.8 -0.93,-1.49 0.21,-0.35 0.54,-0.48 0.94,-0.48 1.78,0 3.56,0 5.34,0 z"
       fill="currentColor"
       id="path601" />
    <path
       d="m 20.99,20.99 c 0.73,0 1.46,0 2.19,0 0.64,0 1.08,0.41 1.07,0.98 0,0.57 -0.45,0.98 -1.08,0.98 -1.46,0 -2.93,0 -4.39,0 -0.64,0 -1.08,-0.41 -1.09,-0.98 0,-0.59 0.44,-0.99 1.1,-0.99 0.73,0 1.46,0 2.19,0 z"
       fill="currentColor"
       id="path603" />
    <path
       d="m 18.15,13.11 c 0.65,0 1.31,0 1.96,0 0.62,0 1.05,0.41 1.05,0.97 0,0.56 -0.43,0.99 -1.04,0.99 -1.34,0 -2.69,0 -4.03,0 -0.6,0 -1.04,-0.44 -1.04,-1 0,-0.56 0.44,-0.96 1.06,-0.97 0.68,0 1.35,0 2.03,0 z"
       fill="currentColor"
       id="path605" />
    <path
       d="m 18.15,24.93 c 0.65,0 1.31,0 1.96,0 0.62,0 1.05,0.41 1.05,0.97 0,0.56 -0.43,0.99 -1.04,0.99 -1.34,0 -2.69,0 -4.03,0 -0.6,0 -1.04,-0.44 -1.04,-1 0,-0.56 0.44,-0.96 1.06,-0.97 0.68,0 1.35,0 2.03,0 z"
       fill="currentColor"
       id="path607" />
    <path
       d="m 28.37,20.99 c 0.55,0 1.09,0 1.64,0 0.61,0 1.04,0.42 1.04,0.99 0,0.55 -0.43,0.97 -1.02,0.98 -1.11,0.01 -2.23,0.01 -3.34,0 -0.59,0 -1,-0.44 -1,-0.99 0,-0.56 0.42,-0.96 1.02,-0.97 0.02,0 0.04,0 0.07,0 0.53,0 1.07,0 1.6,0 z"
       fill="currentColor"
       id="path609" />
    <path
       d="m 34.73,17.05 c 0.38,0 0.76,0 1.15,0 0.55,0.01 0.96,0.41 0.99,0.94 0.02,0.53 -0.38,1 -0.94,1.02 -0.82,0.03 -1.64,0.03 -2.45,0 -0.56,-0.02 -0.96,-0.49 -0.94,-1.02 0.02,-0.53 0.43,-0.92 0.99,-0.94 0.02,0 0.04,0 0.07,0 0.38,0 0.76,0 1.15,0 z"
       fill="currentColor"
       id="path611" />
    <path
       d="m 34.71,20.99 c 0.38,0 0.76,0 1.15,0 0.57,0.01 0.99,0.41 1,0.95 0.01,0.52 -0.38,0.98 -0.92,1 -0.83,0.03 -1.66,0.03 -2.49,0 -0.54,-0.02 -0.93,-0.48 -0.92,-1 0.01,-0.54 0.43,-0.94 1,-0.95 0.39,0 0.79,0 1.18,0 z"
       fill="currentColor"
       id="path613" />
    <path
       d="m 12.13,13.12 c 0.54,0 0.98,0.45 0.97,0.99 -0.01,0.53 -0.48,0.98 -1,0.97 -0.53,-0.01 -0.98,-0.48 -0.97,-1 0,-0.54 0.46,-0.97 1,-0.96 z"
       fill="currentColor"
       id="path615" />
    <path
       d="m 13.1,18.05 c -0.01,0.53 -0.48,0.98 -1,0.97 -0.53,-0.01 -0.98,-0.48 -0.97,-1.01 0,-0.54 0.46,-0.97 1,-0.96 0.54,0 0.98,0.46 0.97,0.99 z"
       fill="currentColor"
       id="path617" />
    <path
       d="m 12.13,20.99 c 0.54,0 0.98,0.46 0.96,1 -0.01,0.53 -0.48,0.98 -1,0.97 -0.53,-0.01 -0.97,-0.48 -0.96,-1.01 0.01,-0.54 0.46,-0.97 1,-0.96 z"
       fill="currentColor"
       id="path619" />
    <path
       d="m 12.11,24.93 c 0.54,0 0.99,0.43 0.99,0.97 0,0.53 -0.45,0.99 -0.98,0.99 -0.52,0 -0.99,-0.45 -0.99,-0.98 0,-0.54 0.44,-0.98 0.98,-0.98 z"
       fill="currentColor"
       id="path621" />
  </g>
</svg>

<svg width="48" height="48" viewBox="0 0 48 48" fill="none" xmlns="http://www.w3.org/2000/svg">
<path d="M7.19 33.8C7.19 26.12 7.19 18.44 7.19 10.76C7.58 9.54997 8.44 9.15997 9.67 9.15997C19.32 9.18997 28.97 9.17997 38.61 9.15997C39.96 9.15997 40.81 10.15 40.8 11.34C40.78 18.64 40.79 25.93 40.79 33.23C40.79 34.63 39.99 35.43 38.59 35.43C35.82 35.43 33.06 35.43 30.29 35.43H29.92V38.87C30.72 38.87 31.49 38.87 32.27 38.87C32.88 38.87 33.32 39.3 33.32 39.86C33.32 40.42 32.89 40.83 32.27 40.84C26.76 40.84 21.24 40.84 15.73 40.84C15.11 40.84 14.68 40.43 14.68 39.86C14.68 39.3 15.12 38.88 15.73 38.87C16.4 38.87 17.06 38.87 17.73 38.87C17.84 38.87 17.96 38.87 18.07 38.87V35.43C17.92 35.43 17.79 35.43 17.66 35.43C14.88 35.43 12.1 35.43 9.32 35.43C8.23 35.43 7.55 34.92 7.24 33.88C7.24 33.85 7.21 33.83 7.19 33.8ZM38.82 11.17H9.18V29.5H38.82V11.17ZM38.82 31.52H9.18V33.44H38.82V31.52ZM20.07 35.64V38.82H27.91V35.64H20.07Z" fill="currentColor"/>
<path d="M24.12 17.05C25.93 17.05 27.75 17.05 29.56 17.05C30.13 17.05 30.55 17.47 30.55 18.01C30.55 18.53 30.16 18.96 29.61 19.01C29.51 19.01 29.41 19.01 29.32 19.01C27.2 19.01 25.08 19.01 22.96 19.01C21.56 19.01 20.16 19.01 18.76 19.01C17.91 19.01 17.41 18.21 17.83 17.52C18.04 17.17 18.37 17.04 18.77 17.04C20.55 17.04 22.33 17.04 24.11 17.04L24.12 17.05Z" fill="currentColor"/>
<path d="M20.99 20.99C21.72 20.99 22.45 20.99 23.18 20.99C23.82 20.99 24.26 21.4 24.25 21.97C24.25 22.54 23.8 22.95 23.17 22.95C21.71 22.95 20.24 22.95 18.78 22.95C18.14 22.95 17.7 22.54 17.69 21.97C17.69 21.38 18.13 20.98 18.79 20.98C19.52 20.98 20.25 20.98 20.98 20.98L20.99 20.99Z" fill="currentColor"/>
<path d="M18.15 13.11C18.8 13.11 19.46 13.11 20.11 13.11C20.73 13.11 21.16 13.52 21.16 14.08C21.16 14.64 20.73 15.07 20.12 15.07C18.78 15.07 17.43 15.07 16.09 15.07C15.49 15.07 15.05 14.63 15.05 14.07C15.05 13.51 15.49 13.11 16.11 13.1C16.79 13.1 17.46 13.1 18.14 13.1L18.15 13.11Z" fill="currentColor"/>
<path d="M18.15 24.93C18.8 24.93 19.46 24.93 20.11 24.93C20.73 24.93 21.16 25.34 21.16 25.9C21.16 26.46 20.73 26.89 20.12 26.89C18.78 26.89 17.43 26.89 16.09 26.89C15.49 26.89 15.05 26.45 15.05 25.89C15.05 25.33 15.49 24.93 16.11 24.92C16.79 24.92 17.46 24.92 18.14 24.92L18.15 24.93Z" fill="currentColor"/>
<path d="M28.37 20.99C28.92 20.99 29.46 20.99 30.01 20.99C30.62 20.99 31.05 21.41 31.05 21.98C31.05 22.53 30.62 22.95 30.03 22.96C28.92 22.97 27.8 22.97 26.69 22.96C26.1 22.96 25.69 22.52 25.69 21.97C25.69 21.41 26.11 21.01 26.71 21C26.73 21 26.75 21 26.78 21C27.31 21 27.85 21 28.38 21L28.37 20.99Z" fill="currentColor"/>
<path d="M34.73 17.05C35.11 17.05 35.49 17.05 35.88 17.05C36.43 17.06 36.84 17.46 36.87 17.99C36.89 18.52 36.49 18.99 35.93 19.01C35.11 19.04 34.29 19.04 33.48 19.01C32.92 18.99 32.52 18.52 32.54 17.99C32.56 17.46 32.97 17.07 33.53 17.05C33.55 17.05 33.57 17.05 33.6 17.05C33.98 17.05 34.36 17.05 34.75 17.05H34.73Z" fill="currentColor"/>
<path d="M34.71 20.99C35.09 20.99 35.47 20.99 35.86 20.99C36.43 21 36.85 21.4 36.86 21.94C36.87 22.46 36.48 22.92 35.94 22.94C35.11 22.97 34.28 22.97 33.45 22.94C32.91 22.92 32.52 22.46 32.53 21.94C32.54 21.4 32.96 21 33.53 20.99C33.92 20.99 34.32 20.99 34.71 20.99Z" fill="currentColor"/>
<path d="M12.13 13.12C12.67 13.12 13.11 13.57 13.1 14.11C13.09 14.64 12.62 15.09 12.1 15.08C11.57 15.07 11.12 14.6 11.13 14.08C11.13 13.54 11.59 13.11 12.13 13.12Z" fill="currentColor"/>
<path d="M13.1 18.05C13.09 18.58 12.62 19.03 12.1 19.02C11.57 19.01 11.12 18.54 11.13 18.01C11.13 17.47 11.59 17.04 12.13 17.05C12.67 17.05 13.11 17.51 13.1 18.04V18.05Z" fill="currentColor"/>
<path d="M12.13 20.99C12.67 20.99 13.11 21.45 13.09 21.99C13.08 22.52 12.61 22.97 12.09 22.96C11.56 22.95 11.12 22.48 11.13 21.95C11.14 21.41 11.59 20.98 12.13 20.99Z" fill="currentColor"/>
<path d="M12.11 24.93C12.65 24.93 13.1 25.36 13.1 25.9C13.1 26.43 12.65 26.89 12.12 26.89C11.6 26.89 11.13 26.44 11.13 25.91C11.13 25.37 11.57 24.93 12.11 24.93Z" fill="currentColor"/>
</svg>
